X:58
T:The Chase
S:Petrie's Second Collection of Strathspey Reels and Country Dances &c.
Z:Steve Wyrick , 6/11/04
N:Petrie's Second Collection, page 20
% Gore's Index gives earliest publication as John Hamilton's
% "A Choice Coll. of Scots Reels, or C.D. & Str..." N.D.;
% it also appears in several other collections around the time of Petrie's book
L:1/8
M:C
R:Reel
K:G
d|g2 (bg) dgBd   |g2 bg   d(BAG) |g2  bg  f2 af  |e(gfe) d3 :|d|
  d2 (gd) b(dcB) |c2 (fc) a(cTBA)|B2 (dB) g(BTAG)|DGFA   GABc|
  d2 (gd) b(dTcB)|c2 (fc) a(cTBA)|B2 (dB) g(BTAG)|DGFA   G3 |]
